X:1
T:Die schöne Müllerin (D.795)
T:Des Baches Wiegenlied
T:  Des Baches Wiegenlied
T:Franz Schubert
T:Die schöne Müllerin (D.795) - N°20
T:Friedrich Müller
T:OpenScore (CC0)
T:OpenScore (CC0)
T:OpenScore (CC0)
C:Franz Schubert
Z:Wilhelm Müller
Z:OpenScore (CC0)
%%score ( 1 2 ) { ( 3 4 ) | ( 5 6 ) }
L:1/8
Q:1/4=70
M:2/2
K:E
V:1 treble nm="Hautbois"
V:2 treble 
V:3 treble nm="Piano"
V:4 treble 
V:5 bass 
V:6 bass 
V:1
"^Mässig." z2 | z8 | z8 | z8 | z4 z2 G A |: B2 G A (B2 B) e | d3 A G2 G A | B2 G A (B2 B) e | %8
w: ||||1.~Gu- te|Ruh, gu- te Ruh! tu die|Au- gen zu! gu- te|Ruh, gu- te Ruh, tu die|
w: |||||2.~~bet- ten dich kühl _ auf|wei- chen Pfühl, will _|bet- ten dich kühl _ auf|
w: |||||3.~~Jagd- horn * schallt aus dem|grü- nen Wald, wenn ein|Jagd- horn * schallt aus dem|
w: |||||4.~~weg, hin- * weg von dem|Müh- len- steg, hin~~\- \-|weg, hin- * weg, bö- ses|
w: |||||5.~~Nacht, gu- te Nacht! * bis|al- les wacht, gu- te|Nacht, gu- te Nacht! * bis|
 (dfd) A G2 G G | G2 A B (B>c) B B | e2 dc G3/2 G/ G2 | z4 z2 (c=d) | e2 (c=d) e2 c c | %13
w: Au \- \- gen zu! * *|Wand- rer, du mü- * der, du|bist zu _ Haus. * *|Die _|Treu ist _ hier, * sollst|
w: wei \- \- chen Pfühl * *|in dem _ blau- * en kri-|stal~~- le- nen Kämmer- * lein|Her~~~~\- *|\-~~an, her~~\- \- an, * was|
w: grü- * nen * Wald, will ich|sau- sen und brau- * sen wohl|um dich _ her. * *||Blickt nicht her- ein, blau- e|
w: Mäg \- \- de- lein, * *|dass ihn dein Schat- * ten, dein|Schat- ten nicht weckt! * *||Wirf mir her- ein * dein|
w: al \- \- les wacht, * schlaf|aus dei- ne Freu- * de, schlaf|aus dein _ Leid! * *|Der _|Voll- mond * steigt, * der|
 (e=d) c B c2 (cd) | e2 (c=d) e2 c c | (e=d) c B c2 z2 | z4 z2 B B | (c2 B) B{B} g2 e B | %18
w: lie~~\- \- gen bei mir, die _|Treu ist * hier, * sollst|lie~~\- \- gen bei mir,|bis das|Meer _ will trin- ken die|
w: wie~~\- \- gen _ kann, her~~~~\- ~~~~~\-|an, her~~~\- ~~\- an, * was|wie~~\- \- gen * kann,|~~~~~~~~ *|wo- get und wie- get den|
w: Blü~~\- \- me- * lein, * *|blickt nicht her- ein blau- e|Blü~~\- \- me- * lein!|~~~~~~~~~~ ihr|macht mei- nem Schlä- fer die|
w: Tüch- * lein * fein, * *|wirf mir her- ein * dein|Tüch~~\- \- lein * fein,|~~~~~~~~~~ *|dass ich die Au- gen ihm|
w: Ne~~\- \- bel * weicht, der *|Voll- mond * steigt, * der|Ne~~~\- \- bel * weicht,|~~und der|Him- mel da o- ben, wie|
 (c2 B) B G2 B B | (=c2 B) A (Ge) B B | !>!f2 (ed) e4 | z8 |1,2,3,4 z4 z2 (GA) :|1 z8 | z8 | z8 |] %26
w: Bäch- * lein aus, bis das|Meer _ will trin- * ken die|Bäch- lein _ aus.||2.~~Will *||||
w: Kna- ben mir ein, * *|wo- get und wie- * get den|Kna- ben mir ein!||3.~~Wenn~ ein||||
w: Träu- me so schwer, * ihr|macht mei- nem Schlä- * fer die|Träu- me so schwer.||4.~~Hin~~~\- *||||
w: hal- te be- deckt, * *|dass ich die Au- * gen ihm|hal- te be- deckt!||5.~~Gu- te||||
w: ist er so weit, und der|Him- mel da o~~\- ~~~\- ben, wie|ist er so weit!||||||
V:2
 x2 | x8 | x8 | x8 | x8 |: x2 GA x4 | x6 GA | x2 GA x4 | df dA G2 z G | G2 AB x4 | x2 d c G2 z2 | %11
 x4 z4 | x2 c =d e3 c | x2 cB c2 z2 | x2 c =d e3 c | x2 cB x2 x2 | x4 x2 z B | c2 B B x4 | %18
 c2 B x x2 z B | =c2 B x5 | x2 e d x4 | x8 |1,2,3,4 x4 x2 G A :|1 x8 | x8 | x8 |] %26
V:3
!p! B2 | !>!B4 !>!B4 | !>!B4- B4 | !>!B4 !>!B4 | !>!B4- B4 |: !>!B4 !>!B4 | !>!B4- B4 | %7
 !>!B4 !>!B4 | !>!B4- B4 | !>!B4 !>!B4 | !>!G4 !>!G4 | !>!E4 !>!E4 | !>!E4 !>!E4 | !>!E4 !>!E4 | %14
 !>!E4 !>!E4 | !>!E4 !>!E4 | (.[C^DFc]2 .[B,DFB].[B,DFB]) (.[CEGc]2 .[B,EGB].[B,EGB]) | %17
 ([CDFc]2 [B,DFB][B,DFB]) ([CEGc]2 [B,EGB][B,EGB]) | %18
 ([CDFc]2 [B,DFB][B,DFB]) ([CEGc]2 [B,EGB][B,EGB]) | %19
 [=CDF=c]2 [B,DFB][B,DFB] [^CEG^c]2 [B,EGB][B,EGB] |!>(! [B,AB]2!>)! [B,GB][B,FB] [B,GB]4 | %21
!pp! !>!B4 !>!B4 |1,2,3,4 !>!B4- B4 :|1 !>!B4- B4 | !>!B4 !>!B4 | !>!B4- B4 |] %26
V:4
 (EF) | (G2 EF) (G2 EG) | A>FA>F G2 (EF) | (G2 EF) (G2 EG) | A>FA>F G2 EF |: G2 EF G2 EG | %6
 A>FA>F G2 EF | G2 EF G2 EG | A>FA>F E2 (EF) | G2 FE F2 ED | E2 DC D2 C^B, | C2 A,B, C2 A,B, | %12
 C2 A,B, C2 A,C | [CE][B,=D][A,C][G,B,] [A,C]2 A,B, | C2 A,B, C2 A,C | %15
 [CE][B,=D][A,C][G,B,] [A,C]2 A,C | x8 | x8 | x8 | x8 | x8 | (G2 EF) (G2 EG) |1,2,3,4 %22
 A>FA>F G2 EF :|1 A>FA>F G2 EF | G2 EF G2 EG | A>FA>F E4 |] %26
V:5
 (G,B,) | (E2 G,B,) (E2 G,E) | F>B,F>B, E2 (G,B,) | (E2 G,B,) (E2 G,E) | F>B,F>B, E2 G,B, |: %5
 E2 G,B, E2 G,E | F>B,F>B, E2 G,B, | E2 G,B, E2 G,E | F>B,F>B, G,2 G,B, | E2 B,G, D2 B,F, | %10
 C2 G,E, ^B,2 G,D, | A,2 C,E, A,2 C,E, | A,2 C,E, A,2 C,A, | C,=D,E,E, E,2 C,E, | %14
 A,2 C,E, A,2 C,A, | C,=D,E,E, E,2 C,A, | %16
 (.[A,,^D,F,]2 .[B,,D,F,].[B,,D,F,]) (.[G,,E,G,]2 .[B,,E,G,].[B,,E,G,]) | %17
 (!>![A,,D,F,]2 [B,,D,F,][B,,D,F,]) (!>![G,,E,G,]2 [B,,E,G,][B,,E,G,]) | %18
 (!>![A,,D,F,]2 [B,,D,F,][B,,D,F,]) (!>![G,,E,G,]2 [B,,E,G,][B,,E,G,]) | %19
!p! !>![A,,D,F,]2!pp! [B,,D,F,][B,,D,F,] !>![G,,E,G,]2!pp! [B,,E,G,][B,,E,G,] | %20
 [B,,,B,,]2!p! [B,,,B,,][B,,,B,,] [E,,B,,]4 | (E2 G,B,) (E2 G,E) |1,2,3,4 F>B,F>B, E2 G,B, :|1 %23
 F>B,F>B, E2 G,B, | E2 G,B, E2 G,E | F>B,F>B, G,4 |] %26
V:6
 E,2 | E,4 E,4 | E,4- E,4 | E,4 E,4 | E,4- E,4 |: E,4 E,4 | E,4- E,4 | E,4 E,4 | E,4- E,4 | %9
 E,4 B,,4 | C,4 G,,4 | A,,4 A,,4 | A,,4 A,,4 | E,,4 A,,4 | A,,4 A,,4 | !>!E,,4 !>!A,,4 | x8 | x8 | %18
 x8 | x8 | x8 | E,4 E,4 |1,2,3,4 E,4- E,4 :|1 E,4- E,4 | E,4 E,4 | E,4- E,4 |] %26

